X:13
T:Lord Yarborough’s March. TJD.13
M:2/2
L:1/4
Q:1/4=120
S:T.J.Dixon MS1, Lincolnshire, 1798
R:march
N:Dot added in final bar
A:Lincolnshire, Holton le Moor
Z:vmp.R.Greig2010
K:D
ddfa|ddfa|ggff|e/d/e/f/dz|ec/d/e e/f/|a/a/ a/f/|!
e/f/ e/d/|cB”_As writ in MS” A/A/A//A/::ec/d/ee/e/|a/g/f/e/fa|B/d/e/f/ g/f/e/d/|!
ca/a//aa|ddfa|bbgg|f/e/f/g/fe|dd/>d/d:|]

